images_elementary_svg/cmd/32/insertcaptiondialog.svg

<svg height="32" width="32" xmlns="http://www.w3.org/2000/svg" xmlns:xlink="http://www.w3.org/1999/xlink"><linearGradient id="a" gradientTransform="matrix(.53064141 0 0 .58970049 39.269607 -1.791918)" gradientUnits="userSpaceOnUse" x1="5" x2="5" y1="27" y2="7"><stop offset="0" stop-opacity=".317829"/><stop offset="1" stop-opacity=".24031"/></linearGradient><linearGradient id="b" gradientTransform="matrix(.56756757 0 0 .72972971 2.378382 -2.513506)" gradientUnits="userSpaceOnUse" x1="43.365089" x2="16.936518" y1="28.123434" y2="28.123434"><stop offset="0" stop-color="#fff"/><stop offset=".03626217" stop-color="#fff" stop-opacity=".235294"/><stop offset=".95056331" stop-color="#fff" stop-opacity=".156863"/><stop offset="1" stop-color="#fff" stop-opacity=".392157"/></linearGradient><linearGradient id="c" gradientTransform="matrix(.62856997 0 0 .60839392 -41.164737 -20.534791)" gradientUnits="userSpaceOnUse" x1="108.42983" x2="84.566139" y1="58.422333" y2="58.422333"><stop offset="0" stop-color="#f4f4f4"/><stop offset="1" stop-color="#dbdbdb"/></linearGradient><linearGradient id="d" gradientTransform="matrix(.4227 0 0 .38513 14.545 15.083)" gradientUnits="userSpaceOnUse" x1="24.139" x2="24.139" xlink:href="#e" y1="10.171" y2="36.136002"/><linearGradient id="e"><stop offset="0" stop-color="#fff"/><stop offset="0" stop-color="#fff" stop-opacity=".235"/><stop offset="1" stop-color="#fff" stop-opacity=".157"/><stop offset="1" stop-color="#fff" stop-opacity=".392"/></linearGradient><linearGradient id="f" gradientTransform="matrix(.38833 0 0 .41842 15.3 14.318)" gradientUnits="userSpaceOnUse" x1="24.139" x2="24.139" xlink:href="#e" y1="20.749001" y2="25.528"/><radialGradient id="g" cx="65.324997" cy="48.709" gradientTransform="matrix(0 .68598 -.74626 0 60.288 -27.737)" gradientUnits="userSpaceOnUse" r="31"><stop offset="0" stop-color="#cdf87e"/><stop offset=".262" stop-color="#a2e34f"/><stop offset=".661" stop-color="#68b723"/><stop offset="1" stop-color="#1d7e0d"/></radialGradient><g transform="matrix(0 -1 1 0 5.991 34.991)"><path d="m10.396.683-.009 23.961 18.325-.039.009-23.961z" fill="url(#c)"/><path d="m11.496 1.548 16.018-.053-.009 22.057-15.988.013z" fill="none" stroke="url(#b)"/><path d="m10 .018-.009 24.991 19.009-.009-.009-24.991zm1 1.03 16.991-.039.054 22.931-16.991.039z" fill="url(#a)"/><path d="m8.491 25.009v-24.5h-2v24.5" fill="#fcaf3e" stroke="#ce5c00" stroke-linejoin="round" stroke-miterlimit="0"/></g><g transform="translate(-16.993 -16.98)"><path d="m21.5 21.5v-4.02h5v4.02h4.007v5h-4.007v4.007h-5v-4.007h-4.007v-5z" fill="url(#g)"/><g fill="none"><path d="m22.5 23.003v-4.503h3v4.497m0 2.003v4.5h-3v-4.5" opacity=".5" stroke="url(#d)"/><path d="m26 22.512 3.5-.01v2.987l-3.5.01m-4 0-3.5-.01v-2.989l3.5.012" opacity=".5" stroke="url(#f)"/><path d="m21.5 21.5v-4.02h5v4.02h4.007v5h-4.007v4.007h-5v-4.007h-4.007v-5z" opacity=".5" stroke="#0f5a00" stroke-linecap="round" stroke-linejoin="round"/></g></g></svg>

<?xml version="1.0" encoding="UTF-8" standalone="no"?>
<svg
   xmlns:dc="http://purl.org/dc/elements/1.1/"
   xmlns:cc="http://creativecommons.org/ns#"
   xmlns:rdf="http://www.w3.org/1999/02/22-rdf-syntax-ns#"
   xmlns:svg="http://www.w3.org/2000/svg"
   xmlns="http://www.w3.org/2000/svg"
   xmlns:xlink="http://www.w3.org/1999/xlink"
   xmlns:sodipodi="http://sodipodi.sourceforge.net/DTD/sodipodi-0.dtd"
   xmlns:inkscape="http://www.inkscape.org/namespaces/inkscape"
   height="32"
   width="32"
   version="1.1"
   id="svg68"
   sodipodi:docname="insertcaptiondialog.svg"
   inkscape:version="0.92.4 (unknown)"
   inkscape:export-filename="/home/rizmut/Dokumen/Rizmut/Github/libreoffice-style-elementary/images_elementary/cmd/32/insertcaptiondialog.png"
   inkscape:export-xdpi="96"
   inkscape:export-ydpi="96">
  <metadata
     id="metadata74">
    <rdf:RDF>
      <cc:Work
         rdf:about="">
        <dc:format>image/svg+xml</dc:format>
        <dc:type
           rdf:resource="http://purl.org/dc/dcmitype/StillImage" />
      </cc:Work>
    </rdf:RDF>
  </metadata>
  <defs
     id="defs72" />
  <sodipodi:namedview
     pagecolor="#ffffff"
     bordercolor="#666666"
     borderopacity="1"
     objecttolerance="10"
     gridtolerance="10"
     guidetolerance="10"
     inkscape:pageopacity="0"
     inkscape:pageshadow="2"
     inkscape:window-width="1366"
     inkscape:window-height="714"
     id="namedview70"
     showgrid="true"
     inkscape:zoom="7.375"
     inkscape:cx="-4.1828811"
     inkscape:cy="10.876713"
     inkscape:window-x="0"
     inkscape:window-y="28"
     inkscape:window-maximized="1"
     inkscape:current-layer="g886">
    <inkscape:grid
       type="xygrid"
       id="grid881" />
  </sodipodi:namedview>
  <linearGradient
     id="a"
     gradientTransform="matrix(0.53064141,0,0,0.58970049,39.269607,-1.791918)"
     gradientUnits="userSpaceOnUse"
     x1="5"
     x2="5"
     y1="27"
     y2="7">
    <stop
       offset="0"
       stop-opacity=".317829"
       id="stop2" />
    <stop
       offset="1"
       stop-opacity=".24031"
       id="stop4" />
  </linearGradient>
  <linearGradient
     id="b"
     gradientTransform="matrix(0.56756757,0,0,0.72972971,2.378382,-2.513506)"
     gradientUnits="userSpaceOnUse"
     x1="43.365089"
     x2="16.936518"
     y1="28.123434"
     y2="28.123434">
    <stop
       offset="0"
       stop-color="#fff"
       id="stop7" />
    <stop
       offset=".03626217"
       stop-color="#fff"
       stop-opacity=".235294"
       id="stop9" />
    <stop
       offset=".95056331"
       stop-color="#fff"
       stop-opacity=".156863"
       id="stop11" />
    <stop
       offset="1"
       stop-color="#fff"
       stop-opacity=".392157"
       id="stop13" />
  </linearGradient>
  <linearGradient
     id="c"
     gradientTransform="matrix(0.62856997,0,0,0.60839392,-41.164737,-20.534791)"
     gradientUnits="userSpaceOnUse"
     x1="108.42983"
     x2="84.566139"
     y1="58.422333"
     y2="58.422333">
    <stop
       offset="0"
       stop-color="#f4f4f4"
       id="stop16" />
    <stop
       offset="1"
       stop-color="#dbdbdb"
       id="stop18" />
  </linearGradient>
  <linearGradient
     id="d"
     gradientTransform="matrix(0.4227,0,0,0.38513,14.545,15.083)"
     gradientUnits="userSpaceOnUse"
     x1="24.139"
     x2="24.139"
     xlink:href="#e"
     y1="10.171"
     y2="36.136002" />
  <linearGradient
     id="e">
    <stop
       offset="0"
       stop-color="#fff"
       id="stop22" />
    <stop
       offset="0"
       stop-color="#fff"
       stop-opacity=".235"
       id="stop24" />
    <stop
       offset="1"
       stop-color="#fff"
       stop-opacity=".157"
       id="stop26" />
    <stop
       offset="1"
       stop-color="#fff"
       stop-opacity=".392"
       id="stop28" />
  </linearGradient>
  <linearGradient
     id="f"
     gradientTransform="matrix(0.38833,0,0,0.41842,15.3,14.318)"
     gradientUnits="userSpaceOnUse"
     x1="24.139"
     x2="24.139"
     xlink:href="#e"
     y1="20.749001"
     y2="25.528" />
  <radialGradient
     id="g"
     cx="65.324997"
     cy="48.709"
     gradientTransform="matrix(0,0.68598,-0.74626,0,60.288,-27.737)"
     gradientUnits="userSpaceOnUse"
     r="31">
    <stop
       offset="0"
       stop-color="#cdf87e"
       id="stop32" />
    <stop
       offset=".262"
       stop-color="#a2e34f"
       id="stop34" />
    <stop
       offset=".661"
       stop-color="#68b723"
       id="stop36" />
    <stop
       offset="1"
       stop-color="#1d7e0d"
       id="stop38" />
  </radialGradient>
  <radialGradient
     id="h"
     cx="2.25"
     cy="16"
     gradientTransform="matrix(.33947 0 0 .0828 5.28 28.227)"
     gradientUnits="userSpaceOnUse"
     r="16.875">
    <stop
       offset="0"
       id="stop41" />
    <stop
       offset="1"
       stop-opacity="0"
       id="stop43" />
  </radialGradient>
  <g
     id="g886"
     transform="rotate(-90,20.491,14.5)">
    <path
       sodipodi:nodetypes="ccccc"
       style="fill:url(#c)"
       inkscape:connector-curvature="0"
       id="path48"
       d="M 10.396,0.683 10.387,24.644 28.712,24.605 28.721,0.644 Z" />
    <path
       sodipodi:nodetypes="ccccc"
       style="fill:none;stroke:url(#b)"
       inkscape:connector-curvature="0"
       id="path50"
       d="M 11.496,1.548 27.514,1.495 27.505,23.552 11.517,23.565 Z" />
    <path
       sodipodi:nodetypes="cccccccccc"
       style="fill:url(#a)"
       inkscape:connector-curvature="0"
       id="path54"
       d="M 10,0.018 9.991,25.009 29,25 28.991,0.009 Z m 1,1.03 16.991,-0.039 0.054,22.931 -16.991,0.039 z" />
    <path
       inkscape:connector-curvature="0"
       style="fill:#fcaf3e;stroke:#ce5c00;stroke-linejoin:round;stroke-miterlimit:0"
       d="m 8.491,25.009 0,-24.5 h -2 l 0,24.5"
       stroke-miterlimit="0"
       id="path1027"
       sodipodi:nodetypes="cccc" />
  </g>
  <g
     id="g895"
     transform="translate(-16.993,-16.98)">
    <path
       sodipodi:nodetypes="ccccccccccccc"
       style="fill:url(#g)"
       inkscape:connector-curvature="0"
       id="path58"
       d="m 21.5,21.5 v -4.02 h 5 v 4.02 h 4.007 v 5 H 26.5 v 4.007 h -5 V 26.5 h -4.007 v -5 z" />
    <path
       d="M 22.5,23.003 V 18.5 h 3 v 4.497 m 0,2.003 v 4.5 h -3 V 25"
       id="path60"
       style="opacity:0.5;fill:none;stroke:url(#d)"
       inkscape:connector-curvature="0" />
    <path
       d="m 26,22.512 3.5,-0.01 v 2.987 l -3.5,0.01 m -4,0 -3.5,-0.01 V 22.5 l 3.5,0.012"
       id="path62"
       style="opacity:0.5;fill:none;stroke:url(#f)"
       inkscape:connector-curvature="0" />
    <path
       d="m 21.5,21.5 v -4.02 h 5 v 4.02 h 4.007 v 5 H 26.5 v 4.007 h -5 V 26.5 h -4.007 v -5 z"
       id="path64"
       inkscape:connector-curvature="0"
       style="opacity:0.5;fill:none;stroke:#0f5a00;stroke-linecap:round;stroke-linejoin:round" />
  </g>
</svg>
